X: 0212
T: Edinburgh Jigs - 8x32J
P: Philippa Jane
C: NanMain
B: Miss Milligan's Miscellany v.2 #0212
B: Originally Ours v.1 p.181 #MMM-0212
Z: 2019 John Chambers <jc:trillian.mit.edu>
M: 6/8
L: 1/8
R: jig
K: D
%
A |:\
"D"dcd "G"Bcd | "A"e2c "G/A7"A2A | "D"f2d A2A | "A7"g2e A2A |\
"D"a^ga f=ga | "G"b2g "G#/E7"B2d | "A7"e2G "D"FAf |1 "A7"e3 a2c :|2 "A7"e3 "D"d2f  ||
"D"a3A ABA | "E/A7"g2A ABA | "D"f2d "A"e2c | "E7"edB "A"A2A |\
"G"B2c "F#/D"def | "E/A7"gag "D"fed | "E"e2^G "E7"e2d | "A"cBA "G/A7"gfe |
"F#/D"dcd "G"Bcd | "E7"e^de "A7"c=de | "D"fef "C/D7"def | "B/G"g3- g2g |\
"D"a^ga fed | "E/A7"bag "C#/A7"f2e | "A"c2A "C#/A7"gfe | "D"d3 d2 |]
